X: 153
T: the Chorus Jig
R: jig
M: 6/8
L: 1/8
Z: 2011 John Chambers <jc:trillian.mit.edu>
B: Abraham Mackintosh "A Collection of Strathspeys, Reels, Jigs &c.", Newcastle, after 1797, p._
F: http://imslp.info/files/imglnks/usimg/a/a8/IMSLP80796-PMLP164326-Abraham_Mackintosh_coll.pdf
K: D
V: 1
A/G/ |\
F2D DFD | AFD EFG | F2D DFD | ABc dAG | F2D DFD | AFD DFD | E2=c cBc | G3 GFE :|
|:\
F2d dcd | F2A AGA | F2d dcd | ABA BAG | F2d dcd | F2A AFA | E2=c cBc | G3 [1 GFE :|[2 efg ||
f2d dfd | dfd efg | f2d dfd | a3 bag | ~f2d dfd | afd dfd | e2=c cdc | gfg efg |
fdf ece | dcd BAG | F2d dcd | A3 ABc | dBd cAc | BGB AGF | E2=c cBc | GAG BAG |]
V: 2 clef=bass middle=d
z |\
[a3f3d3] [a3f3d3] | [a3f3d3] [a3e3c3] | [a3f3d3] [a3f3d3] | [a3f3d3] [a3f3d3] |\
[a3f3d3] [a3f3d3] | [a3f3d3] [a3f3d3] | [g3e3=c3] [g3e3=c3] | [g3e3=c3] [a3e3^c3] :|
|:\
[a3f3d3] [a3f3d3] | [a3f3d3] [a3f3d3] | [a3f3d3] [a3f3d3] | [a3f3d3] [g3d3] |\
[a3f3d3] [a3f3d3] | [a3f3d3] [a3f3d3] | [g3e3=c3] [g3e3=c3] | [g3e3=c3] [1 [a3e3^c3] :|[2 [a3e3^c3] ||
[a3f3d3] [a3f3d3] | [a3f3d3] [a3e3c3] | [a3f3d3] [a3f3d3] | [a3f3d3] [g3d3] |\
[a3f3d3] [a3f3d3] | [a3f3d3] [a3f3d3] | [g3e3=c3] [g3e3=c3] | [g3e3=c3] [a3e3^c3] |
[a3f3d3] [a3e3c3] | [a3f3d3] [b3g3d3] | [a3f3d3] [a3f3d3] | [a3f3d3] [a3f3d3] |\
[b3d3] [a3d3] | [g3d3] f2d | [g3e3=c3] [g3e3=c3] | [g3e3=c3] [a3e3^c3] |]

%%sep 2 1 500

